X: 288
T:Verbum bonum et suave
N: Derived from Jos2511-Verbum_bonum_et_suave.krn
C: Josquin des Prez
%%abc-version 2.0
%%abcx-abcm2ps-target-version 5.9.1 (29 Sep 2008)
%%abc-creator hum2abc beta
%%abcx-conversion-date 2019/02/12 16:15:53
%%abc-edited-by Jesse Rodin
%%abc-edited-by Joel Chapman 2012/05/1
%%abcx-initial-encoding-date 2012/05/01/
%%humdrum-veritas 907480493
%%humdrum-veritas-data 1785822567
%%linebreak <none>
%%barnumbers 0
L: 1/4
M: 2/1
Q: 1/2=120
V: 1 clef=treble
V: 2 clef=treble-8
V: 3 clef=treble-8
V: 4 clef=treble-8
V: 5 clef=bass
K: C
[V:1] D4G4 | 
[V:2] d4e4 | 
[V:3] z8 | 
[V:4] z8 | 
[V:5] z8 | 
[V:1] A4G4 | 
[V:2] f4g2c2 | 
[V:3] z8 | 
[V:4] z8 | 
[V:5] z8 | 
[V:1] z2c4B2 | 
[V:2] e2cdefg2- | 
[V:3] z8 | 
[V:4] z8 | 
[V:5] z8 | 
[V:1] A4G4 | 
[V:2] g2f2g4 | 
[V:3] D4G4 | 
[V:4] D4E4 | 
[V:5] z8 | 
[V:1] z8 | 
[V:2] z8 | 
[V:3] A4G4 | 
[V:4] F4G2C2 | 
[V:5] D,4E,3C, | 
[V:1] z8 | 
[V:2] z8 | 
[V:3] z2c4B2 | 
[V:4] E2CDEFG2- | 
[V:5] C,D,E,F,G,2G,,2 | 
[V:1] z8 | 
[V:2] z8 | 
[V:3] A4G4 | 
[V:4] G2F2G2d2 | 
[V:5] D,4G,,4- | 
[V:1] z8 | 
[V:2] z8 | 
[V:3] z4A4 | 
[V:4] e2d2cdec | 
[V:5] G,,4z4 | 
[V:1] z8 | 
[V:2] z8 | 
[V:3] B4A4 | 
[V:4] d2DEFGAF | 
[V:5] z4D,4 | 
[V:1] z8 | 
[V:2] z8 | 
[V:3] G2E2F4 | 
[V:4] G2c2defd | 
[V:5] E,4D,4 | 
[V:1] z8 | 
[V:2] z4d4 | 
[V:3] E4D4 | 
[V:4] e2c2d2G2- | 
[V:5] C,2A,,2_B,,4 | 
[V:1] A4B4 | 
[V:2] e2c2g4 | 
[V:3] z8 | 
[V:4] G2F2G3F | 
[V:5] A,,4G,,4 | 
[V:1] A4G2E2 | 
[V:2] f2d2edcB | 
[V:3] z8 | 
[V:4] D2F2C4 | 
[V:5] z8 | 
[V:1] F4E4 | 
[V:2] A2d4c2 | 
[V:3] z8 | 
[V:4] D4z4 | 
[V:5] z8 | 
[V:1] D2G2G2DE | 
[V:2] d2G2B4 | 
[V:3] z4G2G2 | 
[V:4] z8 | 
[V:5] z8 | 
[V:1] FGAFG2A2 | 
[V:2] A4G2d2 | 
[V:3] D4G2F2 | 
[V:4] z8 | 
[V:5] z8 | 
[V:1] B2G4F2 | 
[V:2] d4d4 | 
[V:3] G4A4 | 
[V:4] G2G2D4 | 
[V:5] z8 | 
[V:1] G2A2D2G2- | 
[V:2] B2A2GABc | 
[V:3] G2d2d4 | 
[V:4] G2F2G4 | 
[V:5] z4G,2G,2 | 
[V:1] G2F2G2A2 | 
[V:2] d2D2z4 | 
[V:3] d4B2A2 | 
[V:4] A4G2D2 | 
[V:5] D,4G,2F,2 | 
[V:1] D2G4^F2 | 
[V:2] z4A4 | 
[V:3] GABcd2D2 | 
[V:4] E4D4 | 
[V:5] G,4A,4 | 
[V:1] G4z4 | 
[V:2] B4A4 | 
[V:3] z8 | 
[V:4] d8 | 
[V:5] G,4D,4 | 
[V:1] z8 | 
[V:2] G2c3BAG | 
[V:3] z8 | 
[V:4] z8 | 
[V:5] E,4D,4 | 
[V:1] z4A4 | 
[V:2] A2G4^F2 | 
[V:3] z8 | 
[V:4] z8 | 
[V:5] C,2B,,2A,,4 | 
[V:1] B4A4 | 
[V:2] G4z4 | 
[V:3] z2G2E2F2 | 
[V:4] z4d4 | 
[V:5] G,,4z4 | 
[V:1] G2c3BAG | 
[V:2] z8 | 
[V:3] CDEFG2F2- | 
[V:4] e4d4 | 
[V:5] z8 | 
[V:1] A2G4^F2 | 
[V:2] z8 | 
[V:3] FEG2D4 | 
[V:4] c2B2A4 | 
[V:5] z8 | 
[V:1] G8 | 
[V:2] G4c4 | 
[V:3] z8 | 
[V:4] G2G2C2E2 | 
[V:5] z8 | 
[V:1] z8 | 
[V:2] d4c4 | 
[V:3] z8 | 
[V:4] D2G2C2E2 | 
[V:5] G,,4C,4 | 
[V:1] z8 | 
[V:2] z2f4e2 | 
[V:3] z8 | 
[V:4] DEFGABc2- | 
[V:5] D,4C,4 | 
[V:1] D4G4 | 
[V:2] d4c2g2 | 
[V:3] z8 | 
[V:4] c2B2c4 | 
[V:5] G,4C,2E,2 | 
[V:1] A4G4 | 
[V:2] g2f2g4 | 
[V:3] D4G4 | 
[V:4] z4G4 | 
[V:5] D,4G,,4 | 
[V:1] z2c4B2 | 
[V:2] e2f2g4 | 
[V:3] A4G4 | 
[V:4] c4d4 | 
[V:5] z4G,4 | 
[V:1] A4G4 | 
[V:2] e2cdefe2- | 
[V:3] z2c4B2 | 
[V:4] c4z2G2- | 
[V:5] A,3G,E,2G,2 | 
[V:1] z8 | 
[V:2] e2d4^c2 | 
[V:3] A4G4 | 
[V:4] G2F2E4 | 
[V:5] D,4z4 | 
[V:1] z8 | 
[V:2] d4z4 | 
[V:3] z8 | 
[V:4] D2G2A4 | 
[V:5] z4D,4 | 
[V:1] z8 | 
[V:2] e4f4 | 
[V:3] z8 | 
[V:4] G4(3F2D2d2 | 
[V:5] E,4D,3C, | 
[V:1] z8 | 
[V:2] e4d2B2 | 
[V:3] A4B4 | 
[V:4] cdecd2G2 | 
[V:5] A,,2C,2G,,2G,2 | 
[V:1] z8 | 
[V:2] c4B4 | 
[V:3] A4G2E2 | 
[V:4] z4GABc | 
[V:5] F,G,A,F,G,3F, | 
[V:1] z8 | 
[V:2] A3BcGg2 | 
[V:3] F4E4 | 
[V:4] d2c3Bc2 | 
[V:5] D,2F,2C,4 | 
[V:1] A4B4 | 
[V:2] fgafg2G2 | 
[V:3] D4z4 | 
[V:4] A4G2d2 | 
[V:5] D,4G,,4 | 
[V:1] A4G2E2 | 
[V:2] A2F2G2A2 | 
[V:3] z8 | 
[V:4] c2d2B2c2 | 
[V:5] z2D,2E,2C,2 | 
[V:1] F4E4 | 
[V:2] F3GA4 | 
[V:3] z8 | 
[V:4] A2d4^c2 | 
[V:5] D,4A,,4 | 
[V:1] D4G4 | 
[V:2] D4z4 | 
[V:3] z8 | 
[V:4] d4G4 | 
[V:5] z8 | 
[V:1] G4D4 | 
[V:2] z8 | 
[V:3] z8 | 
[V:4] z2G4F2 | 
[V:5] z8 | 
[V:1] G4G2E2 | 
[V:2] z8 | 
[V:3] z8 | 
[V:4] E2C2c3B | 
[V:5] z8 | 
[V:1] F2G2A4 | 
[V:2] z4d4 | 
[V:3] z8 | 
[V:4] AGg4^f2 | 
[V:5] z4D,4 | 
[V:1] G8 | 
[V:2] d4e4 | 
[V:3] z4G4 | 
[V:4] g4z2c2 | 
[V:5] G,,4C,4 | 
[V:1] z8 | 
[V:2] d4z2d2 | 
[V:3] G4D4 | 
[V:4] B4A4 | 
[V:5] G,,2G,4F,2 | 
[V:1] z8 | 
[V:2] e2c2d2D2 | 
[V:3] G2E2FGA2- | 
[V:4] B2G2A2F2 | 
[V:5] E,4D,4 | 
[V:1] z8 | 
[V:2] G2B2A4 | 
[V:3] A2G4F2 | 
[V:4] G4D4 | 
[V:5] z4D,4 | 
[V:1] z8 | 
[V:2] G4z4 | 
[V:3] G4A4 | 
[V:4] z2G4F2 | 
[V:5] E,4D,4 | 
[V:1] z8 | 
[V:2] z8 | 
[V:3] B4A4 | 
[V:4] G4D2F2- | 
[V:5] G,,4D,4 | 
[V:1] z8 | 
[V:2] z8 | 
[V:3] c3BAGB2 | 
[V:4] F2E2F2GF | 
[V:5] C,4D,2G,,2 | 
[V:1] z2G2c4 | 
[V:2] z8 | 
[V:3] A2G4^F2 | 
[V:4] EDD4C2 | 
[V:5] C,2B,,2A,,4 | 
[V:1] B4c4 | 
[V:2] G4c4 | 
[V:3] G4z4 | 
[V:4] D2d2e4 | 
[V:5] G,,4z4 | 
[V:1] d4z2c2 | 
[V:2] B4c4 | 
[V:3] z8 | 
[V:4] d2B2e4 | 
[V:5] G,,4C,4 | 
[V:1] BcdB(3c2G2A2 | 
[V:2] d4c3B | 
[V:3] G4c4 | 
[V:4] d2B2e4 | 
[V:5] z8 | 
[V:1] B2G4^F2 | 
[V:2] G2B2A4 | 
[V:3] B4c4 | 
[V:4] d4z4 | 
[V:5] z8 | 
[V:1] G8 | 
[V:2] G4z4 | 
[V:3] d2B2cdec | 
[V:4] z8 | 
[V:5] G,,4C,4 | 
[V:1] z8 | 
[V:2] z8 | 
[V:3] dcBAG2c2- | 
[V:4] D4G4 | 
[V:5] B,,4C,4 | 
[V:1] z8 | 
[V:2] z8 | 
[V:3] c2B2c4 | 
[V:4] F4G2A2 | 
[V:5] D,4C,3B,, | 
[V:1] G4c4 | 
[V:2] z8 | 
[V:3] z8 | 
[V:4] B2G4^F2 | 
[V:5] G,,2B,,2A,,4 | 
[V:1] B4c4 | 
[V:2] G4c4 | 
[V:3] z8 | 
[V:4] G2d2e4 | 
[V:5] G,,4z4 | 
[V:1] d4z2c2 | 
[V:2] B4c4 | 
[V:3] z8 | 
[V:4] d2B2e4 | 
[V:5] G,,4C,4 | 
[V:1] BcdB(3c2G2A2 | 
[V:2] d4c3B | 
[V:3] G4c4 | 
[V:4] d2B2e4 | 
[V:5] z8 | 
[V:1] B2G4^F2 | 
[V:2] G2B2A4 | 
[V:3] B4c4 | 
[V:4] d4z4 | 
[V:5] z8 | 
[V:1] G8 | 
[V:2] G8 | 
[V:3] d2B2cdec | 
[V:4] z8 | 
[V:5] G,,4C,4 | 
[V:1] z8 | 
[V:2] z8 | 
[V:3] dcBAG2c2- | 
[V:4] D4G4 | 
[V:5] B,,4C,4 | 
[V:1] z8 | 
[V:2] z8 | 
[V:3] c2B2e4 | 
[V:4] F4G2A2 | 
[V:5] D,4C,3B,, | 
[V:1] z4c4 | 
[V:2] z8 | 
[V:3] d2B2c4 | 
[V:4] B2G4^F2 | 
[V:5] G,,2B,,2A,,4 | 
[V:1] B4A4 | 
[V:2] z2g4f2 | 
[V:3] z8 | 
[V:4] G4z4 | 
[V:5] G,,4z4 | 
[V:1] G4F2D2 | 
[V:2] e4d4 | 
[V:3] z8 | 
[V:4] z8 | 
[V:5] z8 | 
[V:1] E4D4 | 
[V:2] z2c4B2 | 
[V:3] z8 | 
[V:4] z8 | 
[V:5] z8 | 
[V:1] z8 | 
[V:2] A4G4 | 
[V:3] c4B4 | 
[V:4] z8 | 
[V:5] z4z2G,2- | 
[V:1] z8 | 
[V:2] z8 | 
[V:3] A4G4 | 
[V:4] z2d4c2 | 
[V:5] G,2F,2E,4 | 
[V:1] z8 | 
[V:2] z8 | 
[V:3] F2D2E4 | 
[V:4] d4G2A2- | 
[V:5] D,4z2C,2- | 
[V:1] z8 | 
[V:2] z8 | 
[V:3] D4F4 | 
[V:4] A2G2ABcA | 
[V:5] C,2B,,2A,,4 | 
[V:1] z8 | 
[V:2] z8 | 
[V:3] G2DEFGA2- | 
[V:4] B4A4 | 
[V:5] G,,4z4 | 
[V:1] z8 | 
[V:2] z8 | 
[V:3] A2G4^F2 | 
[V:4] z4A4 | 
[V:5] C,4D,4 | 
[V:1] z8 | 
[V:2] z8 | 
[V:3] G2DEFGA2- | 
[V:4] G4DEFG | 
[V:5] G,,A,,B,,C,D,4 | 
[V:1] z8 | 
[V:2] z8 | 
[V:3] A2G4^F2 | 
[V:4] A2B2c4 | 
[V:5] C,2B,,2A,,4 | 
[V:1] z4F4 | 
[V:2] d4d4 | 
[V:3] G4D4 | 
[V:4] B2G2A2D2 | 
[V:5] G,,4z4 | 
[V:1] G2DEFGA2- | 
[V:2] GABcd4 | 
[V:3] z4d4 | 
[V:4] E2G2D2F2- | 
[V:5] z8 | 
[V:1] A2G4^F2 | 
[V:2] c2B2A4 | 
[V:3] e4d4 | 
[V:4] FEG2D4 | 
[V:5] C,4D,4 | 
[V:1] G2DEFGA2- | 
[V:2] G4z2D2 | 
[V:3] B2d3cA2 | 
[V:4] z2G4F2 | 
[V:5] G,,A,,B,,C,D,4 | 
[V:1] AGG4^F2 | 
[V:2] EFGEF2D2 | 
[V:3] c2B2d4 | 
[V:4] G4A4 | 
[V:5] C,2E,2D,4 | 
[V:1] G8- | 
[V:2] E4D4 | 
[V:3] B8- | 
[V:4] G8- | 
[V:5] G,,8- | 
[V:1] G8 ||  
[V:2] d8 ||  
[V:3] B8 ||  
[V:4] G8 ||  
[V:5] G,,8 ||  
[V:1]  [K:C] [M:2/1]z8 | 
[V:2]  [K:C] [M:2/1]c4f4 | 
[V:3]  [K:C] [M:2/1]z8 | 
[V:4]  [K:C] [M:2/1]z8 | 
[V:5]  [K:C] [M:2/1]z8 | 
[V:1] z8 | 
[V:2] e4f4 | 
[V:3] z8 | 
[V:4] C4F4 | 
[V:5] z8 | 
[V:1] G4c4 | 
[V:2] g4c2f2 | 
[V:3] z8 | 
[V:4] E4F4 | 
[V:5] z8 | 
[V:1] B4c4 | 
[V:2] d2e3dc2- | 
[V:3] z8 | 
[V:4] G4E2F2 | 
[V:5] z8 | 
[V:1] d4G2cB | 
[V:2] c2B2e3d | 
[V:3] z8 | 
[V:4] D4C4 | 
[V:5] z8 | 
[V:1] AGG4^F2 | 
[V:2] c2B2A4 | 
[V:3] z8 | 
[V:4] z8 | 
[V:5] z8 | 
[V:1] G2d2B2c2- | 
[V:2] G4z4 | 
[V:3] z8 | 
[V:4] z8 | 
[V:5] z8 | 
[V:1] cBG2A4 | 
[V:2] c4f4 | 
[V:3] z8 | 
[V:4] z8 | 
[V:5] z8 | 
[V:1] G4z4 | 
[V:2] e4f4 | 
[V:3] z8 | 
[V:4] C4F4 | 
[V:5] z8 | 
[V:1] G4c4 | 
[V:2] g4c2f2 | 
[V:3] z8 | 
[V:4] E4F4 | 
[V:5] z8 | 
[V:1] B4c4 | 
[V:2] d2e3dc2- | 
[V:3] z8 | 
[V:4] G4E2F2 | 
[V:5] z8 | 
[V:1] d4G2c2 | 
[V:2] c2B2cdef | 
[V:3] z8 | 
[V:4] D4C4 | 
[V:5] z8 | 
[V:1] B2c3BG2 | 
[V:2] g2cdefg2- | 
[V:3] z8 | 
[V:4] z8 | 
[V:5] z8 | 
[V:1] A4G4 | 
[V:2] g2f2g4- | 
[V:3] z8 | 
[V:4] z4c4 | 
[V:5] z8 | 
[V:1] z4c4 | 
[V:2] g4z4 | 
[V:3] z8 | 
[V:4] B4A4 | 
[V:5] z8 | 
[V:1] B4A4 | 
[V:2] z8 | 
[V:3] z8 | 
[V:4] GABcd2c2- | 
[V:5] z8 | 
[V:1] G2d2c2A2 | 
[V:2] z8 | 
[V:3] z8 | 
[V:4] cBG2A4 | 
[V:5] z8 | 
[V:1] B4A4 | 
[V:2] G4F4 | 
[V:3] z8 | 
[V:4] GABcd2c2- | 
[V:5] z8 | 
[V:1] z2G4^F2 | 
[V:2] E4D4 | 
[V:3] z8 | 
[V:4] cBG2A4 | 
[V:5] z8 | 
[V:1] G4D4 | 
[V:2] GABcd2GA | 
[V:3] z8 | 
[V:4] G4z4 | 
[V:5] z8 | 
[V:1] D4D4 | 
[V:2] Bcdef2d2 | 
[V:3] z8 | 
[V:4] G4F4 | 
[V:5] z8 | 
[V:1] z8 | 
[V:2] g4f4 | 
[V:3] z8 | 
[V:4] E4DEFG | 
[V:5] z8 | 
[V:1] z8 | 
[V:2] e4d4 | 
[V:3] z8 | 
[V:4] A2G3FD2 | 
[V:5] z8 | 
[V:1] z8 | 
[V:2] g4f3e | 
[V:3] z8 | 
[V:4] E4DEFG | 
[V:5] z8 | 
[V:1] z8 | 
[V:2] cdefedd2- | 
[V:3] z8 | 
[V:4] A2G3FD2 | 
[V:5] z8 | 
[V:1] z8 | 
[V:2] d2^c2d4 | 
[V:3] z8 | 
[V:4] E4D4- | 
[V:5] z8 | 
[V:1] z8 | 
[V:2] z4d4 | 
[V:3] z8 | 
[V:4] D4z4 | 
[V:5] z8 | 
[V:1] z8 | 
[V:2] f2d2f2de | 
[V:3] z8 | 
[V:4] D2F2DEFG | 
[V:5] z8 | 
[V:1] z8 | 
[V:2] fga4g2- | 
[V:3] z8 | 
[V:4] A2D2F2G2 | 
[V:5] z8 | 
[V:1] z4D4 | 
[V:2] g2^f2g4 | 
[V:3] z8 | 
[V:4] A4G4 | 
[V:5] z8 | 
[V:1] F2D2F2DE | 
[V:2] d2f2defg | 
[V:3] z8 | 
[V:4] z4D4- | 
[V:5] z8 | 
[V:1] FGA4G2- | 
[V:2] a2d2B2c2 | 
[V:3] z8 | 
[V:4] D2D2E2C2 | 
[V:5] z8 | 
[V:1] G2^F2G2DE | 
[V:2] A4GABc | 
[V:3] z8 | 
[V:4] D4z4 | 
[V:5] z8 | 
[V:1] FGA2FGAB | 
[V:2] d2D2z2d2 | 
[V:3] z8 | 
[V:4] DEFGA2FG | 
[V:5] z8 | 
[V:1] c2GABcd2 | 
[V:2] cdefg2G2 | 
[V:3] z8 | 
[V:4] ABc2GABc | 
[V:5] z8 | 
[V:1] A2cBAGFE | 
[V:2] z2AGFED2 | 
[V:3] z8 | 
[V:4] d2A2d3c | 
[V:5] z8 | 
[V:1] D2dcBAG2- | 
[V:2] dcBAG2B2 | 
[V:3] z8 | 
[V:4] BAG3FG2 | 
[V:5] z8 | 
[V:1] G2^F2G4 ||  
[V:2] A4G4 ||  
[V:3] z8 ||  
[V:4] D4G4 ||  
[V:5] z8 ||  
[V:1]  [K:C] [M:2/1]G4E4 | 
[V:2]  [K:C] [M:2/1]z4c4 | 
[V:3]  [K:C] [M:2/1]z8 | 
[V:4]  [K:C] [M:2/1]G4A4 | 
[V:5]  [K:C] [M:2/1]z8 | 
[V:1] F4D4 | 
[V:2] A4B4 | 
[V:3] z8 | 
[V:4] F4G4 | 
[V:5] z8 | 
[V:1] z2G2F2G2- | 
[V:2] G4z2c2- | 
[V:3] z8 | 
[V:4] E4D2E2- | 
[V:5] z8 | 
[V:1] GABGAGc2- | 
[V:2] c2B2c4 | 
[V:3] z8 | 
[V:4] EFG2C4 | 
[V:5] z8 | 
[V:1] c2B2c4- | 
[V:2] d4c4 | 
[V:3] G4E4 | 
[V:4] z8 | 
[V:5] z4C,4 | 
[V:1] c4z4 | 
[V:2] z8 | 
[V:3] F4D4 | 
[V:4] c4d4 | 
[V:5] A,,4B,,4 | 
[V:1] z8 | 
[V:2] z8 | 
[V:3] z2G4F2 | 
[V:4] B4A4 | 
[V:5] G,,4z2D,2 | 
[V:1] z8 | 
[V:2] z8 | 
[V:3] G4A4 | 
[V:4] z8 | 
[V:5] E,2G,4^F,2 | 
[V:1] G4E4 | 
[V:2] z4c4 | 
[V:3] G4z4 | 
[V:4] G4A4 | 
[V:5] G,4z4 | 
[V:1] F4D4 | 
[V:2] A4B4 | 
[V:3] z8 | 
[V:4] F4G4 | 
[V:5] z8 | 
[V:1] z2G2F2G2- | 
[V:2] G4z2c2- | 
[V:3] z8 | 
[V:4] E4D2E2- | 
[V:5] z8 | 
[V:1] GABGAGc2- | 
[V:2] c2B2c4 | 
[V:3] z8 | 
[V:4] EFG2C4 | 
[V:5] z8 | 
[V:1] c2B2c4- | 
[V:2] d4c4 | 
[V:3] G4E4 | 
[V:4] z8 | 
[V:5] z4C,4 | 
[V:1] c4z4 | 
[V:2] z8 | 
[V:3] F4D4 | 
[V:4] c4d4 | 
[V:5] A,,4B,,4 | 
[V:1] z8 | 
[V:2] z8 | 
[V:3] z2G4F2 | 
[V:4] B4A4 | 
[V:5] G,,4z2D,2 | 
[V:1] z4c4 | 
[V:2] z8 | 
[V:3] G4A4 | 
[V:4] z8 | 
[V:5] E,2G,4F,2 | 
[V:1] B2G2A4 | 
[V:2] g4f2d2 | 
[V:3] G4z4 | 
[V:4] z4f4 | 
[V:5] G,4D,4 | 
[V:1] G3ABcB2 | 
[V:2] e4d2B2 | 
[V:3] c4B2G2 | 
[V:4] e2c2d4 | 
[V:5] z2C,2G,,2B,,2 | 
[V:1] E3FGAG2 | 
[V:2] c4B4 | 
[V:3] A4G2E2 | 
[V:4] c2A2B2G2 | 
[V:5] A,,2C,2G,,4 | 
[V:1] F2D2E4 | 
[V:2] A8 | 
[V:3] F4E4 | 
[V:4] ADd4^c2 | 
[V:5] D,4A,,4 | 
[V:1] F3DD2d2 | 
[V:2] z4d4 | 
[V:3] D4z4 | 
[V:4] d4z4 | 
[V:5] z8 | 
[V:1] B2c3BAG | 
[V:2] e4c4 | 
[V:3] z8 | 
[V:4] z8 | 
[V:5] z8 | 
[V:1] B2A4G2- | 
[V:2] d4B2c2 | 
[V:3] z8 | 
[V:4] z8 | 
[V:5] z8 | 
[V:1] G2^F2G4 | 
[V:2] A4G4 | 
[V:3] d4B2c2- | 
[V:4] z4G4 | 
[V:5] D,4E,4 | 
[V:1] z8 | 
[V:2] z8 | 
[V:3] cBAGB2A2- | 
[V:4] E4F4 | 
[V:5] C,4D,4 | 
[V:1] z8 | 
[V:2] z8 | 
[V:3] A2G4^F2 | 
[V:4] D2E2C4 | 
[V:5] B,,2C,2A,,4 | 
[V:1] [M:3/1]d4B4c4 | 
[V:2] [M:3/1]z4g4e4 | 
[V:3] [M:3/1]G8z4 | 
[V:4] [M:3/1]D8z4 | 
[V:5] [M:3/1]G,,8z4 | 
[V:1] A8c4 | 
[V:2] f4d4e4 | 
[V:3] z12 | 
[V:4] z12 | 
[V:5] z12 | 
[V:1] B4A8 | 
[V:2] g4^f6e2 | 
[V:3] z4z4d4 | 
[V:4] z12 | 
[V:5] z12 | 
[V:1] G8z4 | 
[V:2] g4z4z4 | 
[V:3] B4c6A2 | 
[V:4] G4E4F4- | 
[V:5] G,,4C,4A,,4 | 
[V:1] z12 | 
[V:2] z12 | 
[V:3] A8c4 | 
[V:4] F4D4E4 | 
[V:5] D,6C,2A,,4 | 
[V:1] z12 | 
[V:2] z12 | 
[V:3] B8A4 | 
[V:4] G4^F6E2 | 
[V:5] G,,4D,8 | 
[V:1] d4B4c4 | 
[V:2] z4g4e4 | 
[V:3] G8z4 | 
[V:4] G8z4 | 
[V:5] G,,8z4 | 
[V:1] A8c4 | 
[V:2] f4d4e4 | 
[V:3] z12 | 
[V:4] z12 | 
[V:5] z12 | 
[V:1] B4A8 | 
[V:2] g4^f6e2 | 
[V:3] z4z4d4 | 
[V:4] z12 | 
[V:5] z12 | 
[V:1] G8z4 | 
[V:2] g4z4z4 | 
[V:3] B4c6A2 | 
[V:4] G4E4F4- | 
[V:5] G,,4C,4A,,4 | 
[V:1] z12 | 
[V:2] z12 | 
[V:3] A8c4 | 
[V:4] F2D2D4E4 | 
[V:5] D,6C,2A,,4 | 
[V:1] z12 | 
[V:2] z12 | 
[V:3] B4A8 | 
[V:4] G4^F6E2 | 
[V:5] G,,4D,8 | 
[V:1] z12 | 
[V:2] z12 | 
[V:3] G8z4 | 
[V:4] G4D4E4 | 
[V:5] G,,8C,4 | 
[V:1] z12 | 
[V:2] z12 | 
[V:3] z4z4c4 | 
[V:4] G6^FE^F4 | 
[V:5] B,,4G,,4A,,4 | 
[V:1] z4z4c4 | 
[V:2] d4e4f4 | 
[V:3] B4G4A4 | 
[V:4] G8z4 | 
[V:5] G,,4z4z4 | 
[V:1] B4G4A4 | 
[V:2] g4e4f4 | 
[V:3] G8F4 | 
[V:4] z4z4c4 | 
[V:5] z12 | 
[V:1] G8F4 | 
[V:2] e4c4d4 | 
[V:3] G4E4D4 | 
[V:4] B4G4A4 | 
[V:5] z4z4D,4 | 
[V:1] G4E4F4 | 
[V:2] B4c4A4 | 
[V:3] z12 | 
[V:4] G8F4 | 
[V:5] E,4C,4D,4 | 
[V:1] D4z4A4 | 
[V:2] _B4A4F4 | 
[V:3] z12 | 
[V:4] G4E4D4 | 
[V:5] _B,,4C,4D,4 | 
[V:1] B4A4D4 | 
[V:2] G4D4z4 | 
[V:3] z4A4B4 | 
[V:4] z12 | 
[V:5] G,,4z4z4 | 
[V:1] z12 | 
[V:2] e4f4e4 | 
[V:3] A4F4G4 | 
[V:4] z12 | 
[V:5] A,,4D,4C,4 | 
[V:1] z12 | 
[V:2] c4d4e4 | 
[V:3] A4G4z4 | 
[V:4] z12 | 
[V:5] A,,4B,,4C,4 | 
[V:1] z12 | 
[V:2] d8z4 | 
[V:3] z12 | 
[V:4] z12 | 
[V:5] G,,8z4 | 
[V:1] A4d4c4 | 
[V:2] f4d4e4 | 
[V:3] A4_B4A4 | 
[V:4] F4G4E4 | 
[V:5] D,4_B,,4C,4 | 
[V:1] A4B4c4 | 
[V:2] f4d4c4 | 
[V:3] F4G4A4 | 
[V:4] D4B,4E4 | 
[V:5] D,4G,,4C,4 | 
[V:1] [M:2/1]B3cd2DE | 
[V:2] [M:2/1]!fermata!d8- | 
[V:3] [M:2/1]G4_B4 | 
[V:4] [M:2/1]!fermata!D8- | 
[V:5] [M:2/1]G,,4G,,4 | 
[V:1] FGA4DE | 
[V:2] d8- | 
[V:3] A2F2_B4 | 
[V:4] D8- | 
[V:5] D,4z2G,,2 | 
[V:1] FGA3GG2- | 
[V:2] d8- | 
[V:3] A2F2_B4 | 
[V:4] D8- | 
[V:5] D,4G,,4 | 
[V:1] G2^FEF4 | 
[V:2] d8 | 
[V:3] !fermata!A8 | 
[V:4] !fermata!D8 | 
[V:5] !fermata!D,8 | 
[V:1] !fermata!G8- | 
[V:2] B3cd2GA | 
[V:3] G8- | 
[V:4] D4B,3C | 
[V:5] G,,8 | 
[V:1] G8- | 
[V:2] Bcd4GA | 
[V:3] G8- | 
[V:4] D2B,2E4 | 
[V:5] G,,4z4 | 
[V:1] G8- | 
[V:2] Bcd3cc2- | 
[V:3] G8- | 
[V:4] D2B,2E4 | 
[V:5] G,,4C,4 | 
[V:1] G8 |]  
[V:2] c2BAB4 |]  
[V:3] G8 |]  
[V:4] D8 |]  
[V:5] G,,8 |]  



